packages/ffe-icons/icons/filled/md/controller_gen.svg

<svg xmlns="http://www.w3.org/2000/svg" height="24" viewBox="0 -960 960 960" width="24"><path d="M479.955-250.001q95.814 0 162.929-67.07 67.115-67.07 67.115-162.884t-67.07-162.929q-67.07-67.115-162.884-67.115t-162.929 67.07q-67.115 67.07-67.115 162.884t67.07 162.929q67.07 67.115 162.884 67.115Zm-.03-59.998q-70.156 0-120.041-49.96-49.885-49.96-49.885-120.116t49.96-120.041q49.96-49.885 120.116-49.885t120.041 49.96q49.885 49.96 49.885 120.116t-49.96 120.041q-49.96 49.885-120.116 49.885Zm-21.001-148.925q8.692 8.693 21.076 8.693t21.076-8.693l56-56q8.693-8.692 8.693-21.076t-8.693-21.076q-8.692-8.693-21.076-8.693t-21.076 8.693l-56 56q-8.693 8.692-8.693 21.076t8.693 21.076ZM212.309-140.001q-30.308 0-51.308-21t-21-51.308v-535.382q0-30.308 21-51.308t51.308-21h535.382q30.308 0 51.308 21t21 51.308v535.382q0 30.308-21 51.308t-51.308 21H212.309Z"/></svg>

<svg xmlns="http://www.w3.org/2000/svg" height="24" viewBox="0 -960 960 960" width="24"><path d="M479.95-250q95.82 0 162.93-67.07Q710-384.14 710-479.95q0-95.82-67.07-162.93Q575.86-710 480.05-710q-95.82 0-162.93 67.07Q250-575.86 250-480.05q0 95.82 67.07 162.93Q384.14-250 479.95-250Zm-.02-60q-70.16 0-120.05-49.96Q310-409.92 310-480.07q0-70.16 49.96-120.05Q409.92-650 480.07-650q70.16 0 120.05 49.96Q650-550.08 650-479.93q0 70.16-49.96 120.05Q550.08-310 479.93-310Zm-21.01-148.92q8.7 8.69 21.08 8.69 12.38 0 21.08-8.69l56-56q8.69-8.7 8.69-21.08 0-12.38-8.69-21.08-8.7-8.69-21.08-8.69-12.38 0-21.08 8.69l-56 56q-8.69 8.7-8.69 21.08 0 12.38 8.69 21.08ZM212.31-140Q182-140 161-161q-21-21-21-51.31v-535.38Q140-778 161-799q21-21 51.31-21h535.38Q778-820 799-799q21 21 21 51.31v535.38Q820-182 799-161q-21 21-51.31 21H212.31Z"/></svg>
